X: 29
T: Missa Conceptio tua / Credo
N: Derived from Rue1006c-Missa_Conceptio_tua-Credo.krn
C: Pierre de la Rue
%%abc-version 2.0
%%abcx-abcm2ps-target-version 5.9.1 (29 Sep 2008)
%%abc-creator hum2abc beta
%%abcx-conversion-date 2019/02/17 08:01:10
%%abc-edited-by Jesse Rodin
%%abc-edited-by Chris Gage 01-03-2013
%%abcx-initial-encoding-date 2013/07/20/
%%humdrum-veritas 2200653146
%%humdrum-veritas-data 3714309516
%%linebreak <none>
%%barnumbers 0
L: 1/4
M: 3/1
Q: 1/2=120
V: 1 clef=treble-8
V: 2 clef=treble-8
V: 3 clef=treble-8
V: 4 clef=bass
V: 5 clef=bass
K: C
[V:1] z12 | 
[V:2] D8D4 | 
[V:3] z12 | 
[V:4] z12 | 
[V:5] z12 | 
[V:1] z4d8 | 
[V:2] C4F8 | 
[V:3] z12 | 
[V:4] z12 | 
[V:5] z12 | 
[V:1] d4c4f4- | 
[V:2] G4A6_B2- | 
[V:3] z12 | 
[V:4] z12 | 
[V:5] z12 | 
[V:1] f4g4a2a2- | 
[V:2] BAGFE2FEF3G | 
[V:3] z12 | 
[V:4] z12 | 
[V:5] z12 | 
[V:1] a2gfe2f4e2 | 
[V:2] ABc4BAG4 | 
[V:3] z12 | 
[V:4] z12 | 
[V:5] z12 | 
[V:1] f4z2f2f2e2- | 
[V:2] F8z2A2 | 
[V:3] z12 | 
[V:4] z12 | 
[V:5] z12 | 
[V:1] e2g4f2d2f2- | 
[V:2] A2G4_B4A2 | 
[V:3] z12 | 
[V:4] z12 | 
[V:5] z12 | 
[V:1] f2edc4z2c2 | 
[V:2] F2A4GFE4 | 
[V:3] z12 | 
[V:4] z12 | 
[V:5] z12 | 
[V:1] c2c3defg3f | 
[V:2] z2E2E2E3FGA | 
[V:3] z12 | 
[V:4] z12 | 
[V:5] z12 | 
[V:1] d2e4dcB2A2 | 
[V:2] B2c4BAG2A2- | 
[V:3] z12 | 
[V:4] z12 | 
[V:5] z12 | 
[V:1] e4g2f2e3d/c/ | 
[V:2] A2c2B2A3G/F/E2- | 
[V:3] z12 | 
[V:4] z12 | 
[V:5] z12 | 
[V:1] BAe4d3^c^c2 | 
[V:2] EFG/F/GA2F2E4 | 
[V:3] z12 | 
[V:4] z12 | 
[V:5] z12 | 
[V:1] d12 | 
[V:2] D12 | 
[V:3] z12 | 
[V:4] A,6A,2A,2A,2 | 
[V:5] z4D,6D,2 | 
[V:1] z12 | 
[V:2] z12 | 
[V:3] z12 | 
[V:4] F,3E,D,4G,4- | 
[V:5] D,2D,2B,,3A,,G,,4 | 
[V:1] z12 | 
[V:2] z12 | 
[V:3] z12 | 
[V:4] G,2E,4D,C,D,2C,2- | 
[V:5] C,6B,,A,,B,,2A,,2 | 
[V:1] z12 | 
[V:2] z12 | 
[V:3] z12 | 
[V:4] C,D,E,4D,C,B,,4 | 
[V:5] C,3B,,G,,2A,,4^G,,2 | 
[V:1] z12 | 
[V:2] z12 | 
[V:3] z12 | 
[V:4] A,,4z2A,,2C,3D, | 
[V:5] A,,8z2A,,2- | 
[V:1] z12 | 
[V:2] z12 | 
[V:3] z12 | 
[V:4] E,2F,3E,D,C,D,2E,2- | 
[V:5] A,,2A,,2_B,,3A,,G,,F,,G,,2 | 
[V:1] z12 | 
[V:2] z12 | 
[V:3] z12 | 
[V:4] E,2A,,4A,4F,2 | 
[V:5] A,,4D,,4D,4 | 
[V:1] z12 | 
[V:2] z12 | 
[V:3] z12 | 
[V:4] G,2E,2F,2D,2G,3F, | 
[V:5] B,,2C,2A,,2B,,2G,,2C,2- | 
[V:1] z12 | 
[V:2] z12 | 
[V:3] z12 | 
[V:4] E,D,F,3E,D,4^C,2 | 
[V:5] C,B,,A,,G,,A,,2G,,F,,E,,4 | 
[V:1] z12 | 
[V:2] A4F2G2A4 | 
[V:3] D12 | 
[V:4] D,E,F,G,A,2G,4^F,2 | 
[V:5] D,,8D,,4 | 
[V:1] d4B2c2d4 | 
[V:2] BGBcd2c3BB2 | 
[V:3] D12 | 
[V:4] G,12 | 
[V:5] G,,12 | 
[V:1] ecefg2f4e2 | 
[V:2] c2c3BA2G4 | 
[V:3] C12 | 
[V:4] z12 | 
[V:5] z12 | 
[V:1] f2a4a2a2gf | 
[V:2] F4c4c2c2- | 
[V:3] F12 | 
[V:4] C,4C,2F,4E,D, | 
[V:5] F,,4F,,2F,,4F,,2 | 
[V:1] edg4f3ee2 | 
[V:2] c2c2c2c2c4 | 
[V:3] G12 | 
[V:4] E,2C,2E,2F,2G,4 | 
[V:5] C,4C,4C,4 | 
[V:1] f8z4 | 
[V:2] c4z4z4 | 
[V:3] F12 | 
[V:4] A,4z2D,2D,2D,2 | 
[V:5] F,,4z2_B,,2B,,2B,,2 | 
[V:1] z4z2f2f2f2 | 
[V:2] z4z2c2c2c2 | 
[V:3] A12 | 
[V:4] C,3B,,A,,8 | 
[V:5] A,,3G,,F,,8 | 
[V:1] e3dc8 | 
[V:2] c3BAGF2E4 | 
[V:3] A12- | 
[V:4] z4z4z2A,2 | 
[V:5] z4z2A,,2A,,2A,,2 | 
[V:1] z2f2f2f2d3c | 
[V:2] z2D2D2D2F3D | 
[V:3] A12 | 
[V:4] A,2F,4D,3E,F,2 | 
[V:5] F,,3E,,D,,8 | 
[V:1] BAc4BAG2A2 | 
[V:2] EFG2A2GFE2F2 | 
[V:3] z12 | 
[V:4] G,F,E,D,C,8 | 
[V:5] z12 | 
[V:1] G2c4BAG4 | 
[V:2] E2A2G2F4E2 | 
[V:3] z12 | 
[V:4] C,4C,4C,4 | 
[V:5] z12 | 
[V:1] F8z4 | 
[V:2] F4z4z4 | 
[V:3] A12 | 
[V:4] z2C,3C,C,2C,2E,2- | 
[V:5] F,,3F,,F,,2F,,2A,,3B,, | 
[V:1] z12 | 
[V:2] z4z4z2G2 | 
[V:3] G12 | 
[V:4] E,F,G,F,D,2E,2D,4 | 
[V:5] C,B,,G,,4C,4B,,2 | 
[V:1] z12 | 
[V:2] G2G3FEDC2G2 | 
[V:3] E12 | 
[V:4] C,4z4z4 | 
[V:5] C,2C,2C,2C,2C,B,,A,,G,, | 
[V:1] z12 | 
[V:2] A2c3BA4GF | 
[V:3] F12 | 
[V:4] z2C,2C,2C,2C,3A,, | 
[V:5] F,,8A,,4 | 
[V:1] z12 | 
[V:2] EFGFEDD4^C2 | 
[V:3] G12 | 
[V:4] B,,4G,,6A,,G,, | 
[V:5] G,,2E,,2G,,F,,E,,D,,E,,4 | 
[V:1] z12 | 
[V:2] D2D2F3GABc2- | 
[V:3] F12 | 
[V:4] A,,8z2A,,2 | 
[V:5] D,,4z2D,,2F,,3G,, | 
[V:1] z12 | 
[V:2] cBGABcd4^c2 | 
[V:3] E12 | 
[V:4] C,D,E,F,G,4E,2A,2- | 
[V:5] A,,B,,C,3B,,G,,2A,,4 | 
[V:1] f4f2f4d2- | 
[V:2] d4z2A2A2B2 | 
[V:3] D12 | 
[V:4] A,G,F,E,F,4F,4 | 
[V:5] D,,12 | 
[V:1] defga2g4^f2 | 
[V:2] AGABA2B2A4 | 
[V:3] D12 | 
[V:4] z12 | 
[V:5] z12 | 
[V:1] g4z2e2e2f2- | 
[V:2] G8z2A2 | 
[V:3] z12 | 
[V:4] z12 | 
[V:5] z12 | 
[V:1] f2edg3fe2d2 | 
[V:2] A2B4AGc3B | 
[V:3] z12 | 
[V:4] z12 | 
[V:5] z12 | 
[V:1] c2B2A2f4ed | 
[V:2] A2G2F3EDEFG | 
[V:3] z12 | 
[V:4] z12 | 
[V:5] z12 | 
[V:1] c8z4 | 
[V:2] A8z4 | 
[V:3] z12 | 
[V:4] z2E,2E,2F,4E,D, | 
[V:5] A,,4A,,4_B,,4 | 
[V:1] z12 | 
[V:2] z12 | 
[V:3] z12 | 
[V:4] G,3F,E,2D,2C,2B,,2 | 
[V:5] _B,,2A,,G,,C,3B,,A,,2G,,2 | 
[V:1] z12 | 
[V:2] z12 | 
[V:3] z12 | 
[V:4] A,,2F,3E,D,4^C,2 | 
[V:5] F,,2D,,2F,,2G,,2E,,4 | 
[V:1] z4z4d4 | 
[V:2] z2D2D2D2F3G | 
[V:3] D12 | 
[V:4] D,8z4 | 
[V:5] D,,12- | 
[V:1] d2d2f3ga4- | 
[V:2] A4z2D2D2D2 | 
[V:3] F12 | 
[V:4] D,4D,2D,2F,3G, | 
[V:5] D,,12 | 
[V:1] a4z2d2d2d2 | 
[V:2] F3GA2A4GF | 
[V:3] D12 | 
[V:4] A,4F,4F,2F,2 | 
[V:5] z12 | 
[V:1] f3ga2a4gf | 
[V:2] A2D3EFGA3B | 
[V:3] D12 | 
[V:4] F,3E,D,2C,B,,A,,2A,,2- | 
[V:5] D,,4D,,2D,,2F,,3G,, | 
[V:1] e8e4 | 
[V:2] c8z4 | 
[V:3] C12 | 
[V:4] A,,B,,C,D,E,8 | 
[V:5] A,,4A,,8 | 
[V:1] a4a2a3gf2 | 
[V:2] c4c2c4c2 | 
[V:3] F12 | 
[V:4] A,,3B,,C,4C,4 | 
[V:5] F,,4F,,2F,,4F,,2 | 
[V:1] e3fg2f4e2 | 
[V:2] c8c4 | 
[V:3] G12 | 
[V:4] z12 | 
[V:5] C,3D,E,2F,2C,4 | 
[V:1] f8z4 | 
[V:2] A8z4 | 
[V:3] F12 | 
[V:4] C,4C,2D,4C,B,, | 
[V:5] F,,8z4 | 
[V:1] f8f4 | 
[V:2] c4c2A4GF | 
[V:3] A12 | 
[V:4] A,,8A,,4 | 
[V:5] F,,8F,,4 | 
[V:1] c6d2e2f2 | 
[V:2] E8C2D2 | 
[V:3] A12 | 
[V:4] C,4C,6B,,A,, | 
[V:5] A,,4A,,6G,,F,, | 
[V:1] g2e2g3fd4 | 
[V:2] E8z2B2 | 
[V:3] G12 | 
[V:4] B,,4B,,2G,,3A,,B,,2 | 
[V:5] E,,2G,,2E,,3F,,G,,4 | 
[V:1] d2f3ec3def | 
[V:2] d3cA8 | 
[V:3] F12 | 
[V:4] A,,12 | 
[V:5] D,,3E,,F,,G,,A,,4D,,2 | 
[V:1] g2e4d3^c^c2 | 
[V:2] G3Ac2B2A4 | 
[V:3] E12 | 
[V:4] z12 | 
[V:5] E,,2C,3B,,G,,2A,,4 | 
[V:1] d4z2d2d2d2 | 
[V:2] F6EDA4 | 
[V:3] D12 | 
[V:4] z2A,,2A,,2B,,2A,,2D,2- | 
[V:5] D,,12 | 
[V:1] f3edcBAB2B2 | 
[V:2] z4z2G2G2G2 | 
[V:3] z12 | 
[V:4] D,E,F,2G,3F,E,D,E,2 | 
[V:5] z12 | 
[V:1] A3Bcde4d2 | 
[V:2] c3BAGFEF4 | 
[V:3] z12 | 
[V:4] A,,4z4z4 | 
[V:5] z12 | 
[V:1] e8z4 | 
[V:2] E2A2A2A2c3B | 
[V:3] z12 | 
[V:4] z2A,,2A,,2A,,2E,4 | 
[V:5] z4z2A,,2A,,2A,,2 | 
[V:1] z12 | 
[V:2] AGFEF2E4D2 | 
[V:3] z12 | 
[V:4] E,3D,C,B,,B,,4A,,2 | 
[V:5] C,3B,,A,,G,,F,,E,,F,,4 | 
[V:1] z2e2e2e2g4 | 
[V:2] E4z2G2G2G2- | 
[V:3] E12 | 
[V:4] B,,4z2B,,2B,,2B,,2 | 
[V:5] E,,8E,,4 | 
[V:1] z2e2e2e2g4 | 
[V:2] GAB2c2B3AB2 | 
[V:3] G12 | 
[V:4] E,2E,4D,C,B,,2G,2- | 
[V:5] E,,6E,,2E,,4 | 
[V:1] g2f2e2d2c2B2 | 
[V:2] G8A4 | 
[V:3] E12 | 
[V:4] G,F,E,D,C,8 | 
[V:5] C,6B,,2A,,2G,,2 | 
[V:1] A8d4 | 
[V:2] A3GF2E2D2A2- | 
[V:3] F12 | 
[V:4] C,4D,4A,,3B,, | 
[V:5] F,,2E,,2D,,4D,,4 | 
[V:1] c4e8 | 
[V:2] A2c4BAG2A2 | 
[V:3] E12 | 
[V:4] C,2C,4C,2C,4 | 
[V:5] A,,8C,4 | 
[V:1] g4g2f4e2 | 
[V:2] B8z2A2- | 
[V:3] D12 | 
[V:4] B,,2G,4G,2A,2F,2 | 
[V:5] G,,4G,,2G,,2D,,4- | 
[V:1] f2d4cBA2_B2- | 
[V:2] A2_B4AGA2G2- | 
[V:3] D12- | 
[V:4] D,2F,3E,D,3C,_B,,A,, | 
[V:5] D,,4D,,3E,,F,,2G,,2- | 
[V:1] B2d3ef2g2g2 | 
[V:2] GFDEFGA2_B4 | 
[V:3] D12- | 
[V:4] G,,4z4G,,4 | 
[V:5] G,,2_B,,4A,,2G,,3F,, | 
[V:1] f12 ||  
[V:2] A12 ||  
[V:3] D12 ||  
[V:4] A,,2A,,2A,,8 ||  
[V:5] D,,12 ||  
[V:1]  [K:C] [K:clef=treble-8][M:2/1]z8 | 
[V:2]  [K:C] [K:clef=treble-8][M:2/1]G8 | 
[V:3]  [K:C] [K:clef=treble-8][M:2/1]z8 | 
[V:4]  [K:C] [K:clef=bass][M:2/1]z8 | 
[V:5]  [K:C] [K:clef=bass][M:2/1]z8 | 
[V:1] z8 | 
[V:2] G4F4 | 
[V:3] z8 | 
[V:4] z8 | 
[V:5] z8 | 
[V:1] d8 | 
[V:2] _B6A2 | 
[V:3] z8 | 
[V:4] z8 | 
[V:5] z8 | 
[V:1] d4c4 | 
[V:2] G2F2E4 | 
[V:3] z8 | 
[V:4] z8 | 
[V:5] z8 | 
[V:1] f6e2 | 
[V:2] D8 | 
[V:3] z8 | 
[V:4] z8 | 
[V:5] z8 | 
[V:1] d2c2B4 | 
[V:2] z4G4 | 
[V:3] z8 | 
[V:4] z8 | 
[V:5] z8 | 
[V:1] A8 | 
[V:2] F2A3Bc2 | 
[V:3] z8 | 
[V:4] z8 | 
[V:5] z4A,,4 | 
[V:1] z4d4 | 
[V:2] B2A4^G2 | 
[V:3] z8 | 
[V:4] z8 | 
[V:5] G,,2A,,2B,,4 | 
[V:1] c2e3f/g/ag | 
[V:2] A8 | 
[V:3] z8 | 
[V:4] z4E,4 | 
[V:5] A,,8 | 
[V:1] f2e4d2 | 
[V:2] z8 | 
[V:3] z8 | 
[V:4] D,2E,2F,4 | 
[V:5] z8 | 
[V:1] e8 | 
[V:2] z4c4 | 
[V:3] z8 | 
[V:4] E,8- | 
[V:5] z8 | 
[V:1] z4g3f | 
[V:2] B4G4 | 
[V:3] z8 | 
[V:4] E,8 | 
[V:5] z8 | 
[V:1] edf4e2- | 
[V:2] A3GFEG2- | 
[V:3] z8 | 
[V:4] z8 | 
[V:5] z8 | 
[V:1] e2d2c2BA | 
[V:2] G2F2E3F | 
[V:3] z8 | 
[V:4] z8 | 
[V:5] z8 | 
[V:1] G2A3GFE | 
[V:2] GEF4E2- | 
[V:3] z8 | 
[V:4] z8 | 
[V:5] z8 | 
[V:1] F4E4 | 
[V:2] E2D2E4 | 
[V:3] z8 | 
[V:4] z8 | 
[V:5] z4C,4 | 
[V:1] z8 | 
[V:2] z8 | 
[V:3] z8 | 
[V:4] z4G,3F, | 
[V:5] B,,4G,,4 | 
[V:1] z8 | 
[V:2] z8 | 
[V:3] z8 | 
[V:4] E,D,F,2E,2F,2- | 
[V:5] A,,4G,,2A,,2- | 
[V:1] z8 | 
[V:2] z8 | 
[V:3] z8 | 
[V:4] F,2E,4D,2 | 
[V:5] A,,G,,F,,E,,F,,4 | 
[V:1] z8 | 
[V:2] z8 | 
[V:3] z8 | 
[V:4] E,2G,2G,2G,2 | 
[V:5] E,,8 | 
[V:1] z8 | 
[V:2] z8 | 
[V:3] z8 | 
[V:4] A,3G,F,2E,2 | 
[V:5] z2A,,2A,,2A,,2 | 
[V:1] z8 | 
[V:2] z8 | 
[V:3] z8 | 
[V:4] D,8 | 
[V:5] B,,3A,,G,,2F,,2 | 
[V:1] z8 | 
[V:2] z8 | 
[V:3] z8 | 
[V:4] z2G,2G,2G,2 | 
[V:5] E,,2E,2E,2E,2 | 
[V:1] z8 | 
[V:2] z8 | 
[V:3] D8 | 
[V:4] A,3G,F,2E,2 | 
[V:5] F,3E,D,2C,2 | 
[V:1] z8 | 
[V:2] z8 | 
[V:3] D4C4 | 
[V:4] F,2G,2E,4 | 
[V:5] _B,,2G,,2A,,4 | 
[V:1] d8 | 
[V:2] A4A2F2- | 
[V:3] F6D2 | 
[V:4] D,8 | 
[V:5] D,,8 | 
[V:1] d4c4 | 
[V:2] F2EDE4 | 
[V:3] F2G2A4- | 
[V:4] z2B,,2A,,2A,,2 | 
[V:5] z8 | 
[V:1] f6d2 | 
[V:2] z2F2F2F2 | 
[V:3] A8- | 
[V:4] D,4z2D,2 | 
[V:5] z8 | 
[V:1] f2f2e4 | 
[V:2] D4z2E2 | 
[V:3] A4A4 | 
[V:4] D,2D,2A,,4 | 
[V:5] z8 | 
[V:1] z2e2f2f2 | 
[V:2] A2A2FGAB | 
[V:3] A4A4- | 
[V:4] z2A,,2D,2D,2 | 
[V:5] z8 | 
[V:1] e8 | 
[V:2] c4z2B2 | 
[V:3] A4G4- | 
[V:4] A,,4E,4 | 
[V:5] z8 | 
[V:1] g4e2f2 | 
[V:2] c2c2B4 | 
[V:3] G4G4 | 
[V:4] C,2D,2E,4 | 
[V:5] z8 | 
[V:1] g4e2f2 | 
[V:2] z4B4 | 
[V:3] E2F2G4 | 
[V:4] C,2D,2E,4- | 
[V:5] z8 | 
[V:1] g3fd2e2- | 
[V:2] B4B2G2- | 
[V:3] E2F2G4 | 
[V:4] E,2D,C,B,,2C,2- | 
[V:5] z8 | 
[V:1] e2dcB2e2- | 
[V:2] G2A2B2c2 | 
[V:3] E2F2G3F | 
[V:4] C,2B,,A,,G,,2C,2- | 
[V:5] z8 | 
[V:1] e2d4^c2 | 
[V:2] cBAGA4 | 
[V:3] D2F2E4 | 
[V:4] C,B,,D,2A,,4 | 
[V:5] z8 | 
[V:1] d8- | 
[V:2] F3GA2_B2- | 
[V:3] D3EF2G2 | 
[V:4] _B,,2A,,4D,2- | 
[V:5] D,,8 | 
[V:1] d8 | 
[V:2] B2AGA4 | 
[V:3] D2G4^F2 | 
[V:4] D,2C,_B,,A,,4 | 
[V:5] D,,4D,,4 | 
[V:1] z8 | 
[V:2] z8 | 
[V:3] G2G2G2F2 | 
[V:4] z8 | 
[V:5] G,,4E,,2F,,2 | 
[V:1] z8 | 
[V:2] z8 | 
[V:3] E2G3FED | 
[V:4] z8 | 
[V:5] G,,4E,,2F,,2 | 
[V:1] z8 | 
[V:2] z8 | 
[V:3] E2D4^C2 | 
[V:4] z8 | 
[V:5] G,,3F,,E,,4 | 
[V:1] z8 | 
[V:2] z4A4 | 
[V:3] D8 | 
[V:4] z2A,,4D,2 | 
[V:5] D,,8 | 
[V:1] z8 | 
[V:2] A2A2G4 | 
[V:3] z8 | 
[V:4] C,2F,4E,2 | 
[V:5] z8 | 
[V:1] z4f4 | 
[V:2] F4z2F2 | 
[V:3] z8 | 
[V:4] F,4D,4 | 
[V:5] z8 | 
[V:1] f2f2e4 | 
[V:2] F3GA_BA2- | 
[V:3] z8 | 
[V:4] D,2D,2C,3A,, | 
[V:5] z8 | 
[V:1] d4z2c2 | 
[V:2] A2G2A4- | 
[V:3] z8 | 
[V:4] _B,,4A,,4 | 
[V:5] z8 | 
[V:1] c3defe2- | 
[V:2] A8- | 
[V:3] z8 | 
[V:4] z2A,,2A,,2C,2- | 
[V:5] z8 | 
[V:1] e2dcd4 | 
[V:2] A4G4 | 
[V:3] z8 | 
[V:4] C,2B,,A,,B,,4 | 
[V:5] z8 | 
[V:1] c8 | 
[V:2] A2A2A3B | 
[V:3] z8 | 
[V:4] A,,4z2A,,2 | 
[V:5] z8 | 
[V:1] z2e2e3f | 
[V:2] cdc4BA | 
[V:3] z8 | 
[V:4] A,,3B,,C,D,C,2- | 
[V:5] z8 | 
[V:1] gag4fe | 
[V:2] G3AB4 | 
[V:3] z8 | 
[V:4] C,2B,,A,,G,,3A,, | 
[V:5] z8 | 
[V:1] d2e2e3d | 
[V:2] B2c3BA2- | 
[V:3] z8 | 
[V:4] B,,2A,,B,,C,D,E,2- | 
[V:5] z4A,,4 | 
[V:1] c2BAB4 | 
[V:2] AGF4E2 | 
[V:3] z8 | 
[V:4] E,D,C,4B,,2 | 
[V:5] A,,2A,,2G,,4 | 
[V:1] A8 | 
[V:2] F8 | 
[V:3] z4A4 | 
[V:4] C,8- | 
[V:5] F,,3G,,A,,_B,,A,,2- | 
[V:1] z8 | 
[V:2] z8 | 
[V:3] A2A2G4 | 
[V:4] C,8 | 
[V:5] A,,G,,F,,4E,,2 | 
[V:1] z8 | 
[V:2] z8 | 
[V:3] F3GA_BA2- | 
[V:4] z8 | 
[V:5] F,,2A,,3G,,C,2- | 
[V:1] z8 | 
[V:2] z8 | 
[V:3] AGF4E2 | 
[V:4] z8 | 
[V:5] C,_B,,A,,2G,,4 | 
[V:1] z4a4 | 
[V:2] z8 | 
[V:3] F2A2A2F2- | 
[V:4] z8 | 
[V:5] F,,3G,,A,,F,,A,,B,, | 
[V:1] a4g4 | 
[V:2] z8 | 
[V:3] F2EDE4 | 
[V:4] z8 | 
[V:5] C,2D,4^C,2 | 
[V:1] f3ed2cB | 
[V:2] z4A4 | 
[V:3] D8 | 
[V:4] z8 | 
[V:5] D,4z4 | 
[V:1] c2f4e2 | 
[V:2] A4G4 | 
[V:3] z8 | 
[V:4] z8 | 
[V:5] z8 | 
[V:1] f2edc4 | 
[V:2] F2A4c2- | 
[V:3] z8 | 
[V:4] z4A,4 | 
[V:5] D,4A,,4 | 
[V:1] z8 | 
[V:2] c2BAG2E2 | 
[V:3] z8 | 
[V:4] E,3F,G,A,G,2- | 
[V:5] C,8 | 
[V:1] z8 | 
[V:2] G2A2B4 | 
[V:3] z8 | 
[V:4] G,2F,3E,E,2 | 
[V:5] B,,2A,,2G,,4 | 
[V:1] f6f2 | 
[V:2] A4c4- | 
[V:3] z4A4- | 
[V:4] F,4C,4- | 
[V:5] F,,4F,,4- | 
[V:1] f2f2f4 | 
[V:2] c2c2c2c2 | 
[V:3] A2A2A2A2 | 
[V:4] C,2C,2C,2C,2 | 
[V:5] F,,2F,,2F,,2F,,2 | 
[V:1] e4z2e2 | 
[V:2] c8 | 
[V:3] A8 | 
[V:4] C,4A,,4 | 
[V:5] A,,8 | 
[V:1] g4g4- | 
[V:2] B4z2B2 | 
[V:3] G4z2G2 | 
[V:4] z2E,2E,2E,2 | 
[V:5] E,,4z2E,,2 | 
[V:1] g2fed2g2- | 
[V:2] G4G4 | 
[V:3] B4B4 | 
[V:4] D,6D,2 | 
[V:5] G,,4G,,4 | 
[V:1] g2f2e2f2- | 
[V:2] A3Bc2d2- | 
[V:3] A4G2A2- | 
[V:4] D,4G,,2D,2- | 
[V:5] D,,4E,,2D,,2- | 
[V:1] f2e2d2e2- | 
[V:2] d2B2A2B2- | 
[V:3] A2G2F2G2- | 
[V:4] D,2G,,2A,,2G,,2 | 
[V:5] D,,2E,,2F,,2E,,2 | 
[V:1] e2d3^c^c2 | 
[V:2] B2G2A4 | 
[V:3] GFD2E4 | 
[V:4] B,,4C,4 | 
[V:5] G,,2B,,2A,,4 | 
[V:1] d8- | 
[V:2] F4z4 | 
[V:3] D8- | 
[V:4] A,,4z2_B,,2 | 
[V:5] D,,4G,,4- | 
[V:1] d8 | 
[V:2] z2_B3AG2- | 
[V:3] D8- | 
[V:4] _B,,2G,,3A,,B,,2 | 
[V:5] G,,2G,,2G,,2G,,2 | 
[V:1] z8 | 
[V:2] G2F2G2G2 | 
[V:3] D8- | 
[V:4] A,,2D,3C,_B,,2 | 
[V:5] D,,4z2G,,2- | 
[V:1] z8 | 
[V:2] A4_B3A | 
[V:3] D8 | 
[V:4] A,,4G,,4 | 
[V:5] G,,2F,,2G,,2_B,,2- | 
[V:1] z8 | 
[V:2] G2FEF2G2 | 
[V:3] z8 | 
[V:4] D,4C,2D,2- | 
[V:5] B,,2A,,G,,A,,2G,,2 | 
[V:1] z8 | 
[V:2] _B6A2- | 
[V:3] z8 | 
[V:4] D,E,F,4E,D, | 
[V:5] D,8 | 
[V:1] z8 | 
[V:2] AGG4^F2 | 
[V:3] z8 | 
[V:4] E,2D,4C,2 | 
[V:5] C,2B,,2A,,4 | 
[V:1] d6d2 | 
[V:2] G8 | 
[V:3] z4D4- | 
[V:4] D,4z2G,2- | 
[V:5] G,,8 | 
[V:1] d4d4 | 
[V:2] z2A2_B2_B2- | 
[V:3] D2D2D4 | 
[V:4] G,2F,2G,2F,E, | 
[V:5] z4G,,4- | 
[V:1] d8- | 
[V:2] B2AGF2G2 | 
[V:3] D4D4- | 
[V:4] D,2G,2A,2G,2- | 
[V:5] G,,2G,,2D,,4 | 
[V:1] d4d4 | 
[V:2] A2A2_B2_B2- | 
[V:3] D4D4 | 
[V:4] G,2F,2G,2F,E, | 
[V:5] D,,4G,,4- | 
[V:1] d4d4 | 
[V:2] B2AGA2_B2 | 
[V:3] G4F4 | 
[V:4] D,4D,4 | 
[V:5] G,,2G,,2D,,2D,,2 | 
[V:1] e8- | 
[V:2] c4A4 | 
[V:3] E8 | 
[V:4] C,4z2C,2 | 
[V:5] A,,8 | 
[V:1] e8 | 
[V:2] G2A4c2 | 
[V:3] z4E4 | 
[V:4] C,2C,3B,,A,,2 | 
[V:5] z2A,,2A,,2A,,2 | 
[V:1] z4e4 | 
[V:2] B2c3BA2 | 
[V:3] E4E4 | 
[V:4] G,,4A,,2C,2- | 
[V:5] E,,4A,,4 | 
[V:1] e4e4 | 
[V:2] G2A4^G2 | 
[V:3] E4E4 | 
[V:4] C,2B,,A,,B,,4 | 
[V:5] E,,8 | 
[V:1] e4e4 | 
[V:2] A4E4 | 
[V:3] E3FG2A2- | 
[V:4] A,,2E,3D,C,2 | 
[V:5] z8 | 
[V:1] e8 | 
[V:2] z8 | 
[V:3] A2^G2A4 | 
[V:4] B,,4A,,4 | 
[V:5] E,,4A,,4- | 
[V:1] e8 | 
[V:2] z8 | 
[V:3] E2G2F2E2- | 
[V:4] E,3D,C,2B,,2- | 
[V:5] A,,2E,,2A,,2G,,2- | 
[V:1] e4e4 | 
[V:2] z8 | 
[V:3] E2D4^C2 | 
[V:4] B,,2A,,4G,,2 | 
[V:5] G,,2F,,2E,,4 | 
[V:1] f4z2f2- | 
[V:2] z4z2A2- | 
[V:3] D8- | 
[V:4] A,,8- | 
[V:5] D,,8- | 
[V:1] f2e2d2cB | 
[V:2] A2G2F2ED | 
[V:3] D8 | 
[V:4] A,,8 | 
[V:5] D,,8 | 
[V:1] c2d4a2- | 
[V:2] E2F2D2F2- | 
[V:3] z8 | 
[V:4] z8 | 
[V:5] z8 | 
[V:1] a2g2f2ed | 
[V:2] F2E2D2CB, | 
[V:3] z8 | 
[V:4] z8 | 
[V:5] z8 | 
[V:1] e2f2d2g2- | 
[V:2] C2D2G4- | 
[V:3] z8 | 
[V:4] z4z2E,2- | 
[V:5] z8 | 
[V:1] g2f2e2dc | 
[V:2] G2G2G2G2 | 
[V:3] z8 | 
[V:4] E,2D,2C,2B,,A,, | 
[V:5] z8 | 
[V:1] d2e2c2A2- | 
[V:2] G4A2F2- | 
[V:3] z8 | 
[V:4] B,,2C,2A,,4 | 
[V:5] z8 | 
[V:1] A2G2F2ED | 
[V:2] F2E2D2CB, | 
[V:3] z8 | 
[V:4] z8 | 
[V:5] z8 | 
[V:1] E2F2D4 | 
[V:2] C2D2D4 | 
[V:3] z8 | 
[V:4] z2A,4G,2 | 
[V:5] z2F,4E,2 | 
[V:1] z8 | 
[V:2] z8 | 
[V:3] z8 | 
[V:4] F,2E,D,E,2F,2 | 
[V:5] D,2C,B,,C,2D,2- | 
[V:1] z8 | 
[V:2] z8 | 
[V:3] z8 | 
[V:4] D,2G,4F,2 | 
[V:5] D,2_B,,4A,,2 | 
[V:1] z8 | 
[V:2] z8 | 
[V:3] z8 | 
[V:4] E,2D,C,D,2E,2- | 
[V:5] G,,2F,,E,,F,,2G,,2 | 
[V:1] z8 | 
[V:2] z2F4E2 | 
[V:3] z8 | 
[V:4] E,2C,4B,,2 | 
[V:5] E,,2A,,4G,,2 | 
[V:1] z8 | 
[V:2] D2CB,C2D2 | 
[V:3] z8 | 
[V:4] A,,2G,,F,,G,,2A,,2 | 
[V:5] F,,2E,,D,,E,,2F,,2 | 
[V:1] z4d4- | 
[V:2] D8 | 
[V:3] A8 | 
[V:4] A,,8- | 
[V:5] D,,8- | 
[V:1] d4d4 | 
[V:2] z4F4 | 
[V:3] A4A4 | 
[V:4] A,,8 | 
[V:5] D,,8 | 
[V:1] c4f4- | 
[V:2] F6ED | 
[V:3] A8 | 
[V:4] z8 | 
[V:5] F,,8 | 
[V:1] f2e2e4 | 
[V:2] C2c4c2 | 
[V:3] G8 | 
[V:4] z4E,4 | 
[V:5] C,4C,4 | 
[V:1] f4f4 | 
[V:2] A2_B4A2 | 
[V:3] F4F4- | 
[V:4] D,2F,4E,2 | 
[V:5] D,6C,2 | 
[V:1] g8 | 
[V:2] G2F2_B4 | 
[V:3] F2EDE4 | 
[V:4] D,2C,4_B,,2 | 
[V:5] _B,,2A,,2G,,4 | 
[V:1] a6gf | 
[V:2] A4A4 | 
[V:3] F4F4 | 
[V:4] C,8 | 
[V:5] F,,8 | 
[V:1] e4f2g2- | 
[V:2] z8 | 
[V:3] G8- | 
[V:4] E,8 | 
[V:5] C,8 | 
[V:1] g2fed4 | 
[V:2] z8 | 
[V:3] G8 | 
[V:4] D,8 | 
[V:5] _B,,8 | 
[V:1] c4d2e2- | 
[V:2] z8 | 
[V:3] A8 | 
[V:4] E,8- | 
[V:5] A,,8 | 
[V:1] e2dcB4 | 
[V:2] z8 | 
[V:3] G8 | 
[V:4] E,8- | 
[V:5] E,,8 | 
[V:1] z4e4- | 
[V:2] c4c4- | 
[V:3] A8- | 
[V:4] E,8- | 
[V:5] A,,8- | 
[V:1] e2d2c2B2 | 
[V:2] c2B2A2G2 | 
[V:3] A8 | 
[V:4] E,8 | 
[V:5] A,,8 | 
[V:1] A4e4 | 
[V:2] F3DE4 | 
[V:3] z4A4 | 
[V:4] z4C,4 | 
[V:5] z4A,,4 | 
[V:1] f4d2g2- | 
[V:2] D2A2B2d2- | 
[V:3] F4G4 | 
[V:4] D,4B,,4 | 
[V:5] D,,4G,,4 | 
[V:1] g2f4e2- | 
[V:2] d2cBc4 | 
[V:3] A8 | 
[V:4] A,,4A,,4 | 
[V:5] D,,4A,,4 | 
[V:1] e2d4cB | 
[V:2] B8 | 
[V:3] G8 | 
[V:4] B,,8 | 
[V:5] E,,2F,,2G,,4 | 
[V:1] c2A2d4- | 
[V:2] A4z2G2- | 
[V:3] F4D4 | 
[V:4] z4B,,4- | 
[V:5] A,,4B,,4 | 
[V:1] d2cBc4 | 
[V:2] GAB2A2E2 | 
[V:3] E8 | 
[V:4] B,,4C,4 | 
[V:5] G,,4A,,4 | 
[V:1] d8- | 
[V:2] A4G4 | 
[V:3] D8- | 
[V:4] A,,4B,,4- | 
[V:5] F,,4G,,4- | 
[V:1] d8- | 
[V:2] D3EF2G2 | 
[V:3] D8- | 
[V:4] B,,4A,,4 | 
[V:5] G,,4F,,4 | 
[V:1] d8- | 
[V:2] A8 | 
[V:3] D8- | 
[V:4] A,,8- | 
[V:5] D,,8 | 
[V:1] d8 |]  
[V:2] F8 |]  
[V:3] D8 |]  
[V:4] A,,8 |]  
[V:5] D,,8 |]  



